!!!id: bhatk3199s
!!!vol: 3
!!!page: 199
!!!sthayee: Jiske dilpar guzri
!!!raag: bihag
!!!taal: teentaal
!!!tempo: madhyalaya
**kern
!!data: // >N,S  -  G  M/  P  -  N  >DN/  S'  S'  N  -/  P  -  -  -/
==1
Bq
2c
4e
4f
=
2g
4b
aq
4b
=
4cc
4cc
2b
=
1g
!!data: // >MG  M  %P  -/  >GM  [G  R  S]/  >SN,  P,  N,  -/  S  %S  -  N,/
==2
fq
4e
4f
2gS
=
eq
4f
4eH
4d
4ch
=
cq
4B
4G
2B
=
4c
2cS
4B
!!data: // >N,S  -  >MG  M/  >RG  -  -  M/  >DP  -  G  M/  -  [G  R  S]/
==3
Bq
2c
fq
4e
4f
=
dq
2.e
4f
=
aq
2g
4e
[4f
=
4f]
4eH
4d
4ch
==
*-
